X: 9147
T: Daisy Chain, The
R: jig
M: 6/8
K: Gmajor
DEG B2c|ded B2A|GEE cEE|cBA E2D|
DEG B2c|ded B2A|GEE cBA|1 GFE D2D:|2 GFE D2B||
ADD cBA|Bde d2B|AEE cBA|BGE EDB|
ADD cBA|Bde d2B|AGE cBA|1 GFE D2B:|2 GFE D3||

